korla/apps/scalable/gtk3-demo.svg

<svg xmlns="http://www.w3.org/2000/svg" width="64" height="64" version="1.1">
 <path style="fill:#3476cc" d="M 32.155597,4.0017289 A 6.5946984,6.3671019 0 0 0 28.70165,4.8511158 L 9.2973497,15.667749 a 6.5946984,6.3671019 0 0 0 -3.2973492,5.513915 l 0,21.633667 a 6.5946984,6.3671019 0 0 0 3.2973492,5.513915 L 28.70225,59.14608 a 6.5946984,6.3671019 0 0 0 6.594699,0 L 54.70185,48.329246 a 6.5946984,6.3671019 0 0 0 3.297949,-5.515915 l 0,-21.633667 A 6.5946984,6.3671019 0 0 0 54.70185,15.665749 L 35.298149,4.8491158 A 6.5946984,6.3671019 0 0 0 32.156197,3.9997289 Z"/>
 <path style="fill:#f56666" d="M 6.5234375 18.714844 A 6.5946984 6.3671019 0 0 0 6 21.181641 L 6 42.814453 A 6.5946984 6.3671019 0 0 0 9.296875 48.330078 L 28.703125 59.146484 A 6.5946984 6.3671019 0 0 0 32 59.994141 L 32 32.25 L 6.5234375 18.714844 z"/>
 <path style="fill:#7cce44" d="M 57.482422 18.710938 L 32 32.25 L 32 59.994141 A 6.5946984 6.3671019 0 0 0 35.296875 59.146484 L 54.701172 48.330078 A 6.5946984 6.3671019 0 0 0 58 42.8125 L 58 21.179688 A 6.5946984 6.3671019 0 0 0 57.482422 18.710938 z"/>
 <path style="opacity:0.2;fill:#ffffff" d="M 32.15625,4.0019531 A 6.5947745,6.3719333 0 0 0 28.703125,4.8535156 L 9.296875,15.677734 A 6.5947745,6.3719333 0 0 0 6,21.197266 l 0,1.001953 A 6.5947745,6.3719333 0 0 1 9.296875,16.677734 L 28.703125,5.8535156 A 6.5947745,6.3719333 0 0 1 32.15625,5.0019531 6.5947745,6.3719333 0 0 1 35.296875,5.8535156 L 54.703125,16.677734 A 6.5947745,6.3719333 0 0 1 58,22.199219 l 0,-1.001953 A 6.5947745,6.3719333 0 0 0 54.703125,15.677734 L 35.296875,4.8535156 A 6.5947745,6.3719333 0 0 0 32.15625,4.0019531 Z"/>
 <path style="opacity:0.2" d="m 6,41.800859 a 6.5946984,6.3721235 0 0 0 0.00195,0.07422 l 0,-0.07422 -0.00195,0 z m 0.00195,1 0,1 a 6.5946984,6.3721235 0 0 0 3.296875,5.517578 l 19.406253,10.828125 a 6.5946984,6.3721235 0 0 0 6.59375,0 L 54.703125,49.318437 A 6.5946984,6.3721235 0 0 0 58,43.800859 l 0,-1 a 6.5946984,6.3721235 0 0 1 -3.296875,5.517578 L 35.298828,59.146562 a 6.5946984,6.3721235 0 0 1 -6.59375,0 L 9.2988281,48.318437 a 6.5946984,6.3721235 0 0 1 -3.296875,-5.517578 z"/>
 <path style="fill:#ffffff;opacity:0.2" d="M 6.5234375 18.714844 A 6.5946984 6.3671019 0 0 0 6 21.181641 L 6 22.181641 A 6.5946984 6.3671019 0 0 1 6.5234375 19.714844 L 32 33.25 L 32 32.25 L 6.5234375 18.714844 z"/>
 <path style="fill:#ffffff;opacity:0.2" d="M 57.482422 18.710938 L 32 32.25 L 32 33.25 L 57.482422 19.710938 A 6.5946984 6.3671019 0 0 1 58 22.179688 L 58 21.179688 A 6.5946984 6.3671019 0 0 0 57.482422 18.710938 z"/>
</svg>

<svg clip-rule="evenodd" fill-rule="evenodd" stroke-linejoin="round" stroke-miterlimit="2" viewBox="0 0 64 64" xmlns="http://www.w3.org/2000/svg">
 <linearGradient id="a" x2="1" gradientTransform="matrix(0 -28.2501 28.2501 0 32 32.25)" gradientUnits="userSpaceOnUse">
  <stop stop-color="#1359b5" offset="0"/>
  <stop stop-color="#3476cc" offset="1"/>
 </linearGradient>
 <linearGradient id="b" x2="1" gradientTransform="matrix(0 -43.0229 43.0229 0 31.7683 59.9941)" gradientUnits="userSpaceOnUse">
  <stop stop-color="#c63e3e" offset="0"/>
  <stop stop-color="#f56666" offset="1"/>
 </linearGradient>
 <linearGradient id="c" x2="1" gradientTransform="matrix(0 -40.5799 40.5799 0 39.6624 59.9941)" gradientUnits="userSpaceOnUse">
  <stop stop-color="#5ca12c" offset="0"/>
  <stop stop-color="#7cce44" offset="1"/>
 </linearGradient>
 <g fill-rule="nonzero">
  <path transform="matrix(1.07255 0 0 1.07255 -2.32171 -2.32163)" d="m32.156 4.002c-1.211-.029-2.406.265-3.454.849l-19.405 10.817c-2.037 1.136-3.297 3.242-3.297 5.514v21.633c0 2.272 1.26 4.378 3.297 5.514l19.405 10.817c2.038 1.136 4.557 1.136 6.595 0l19.405-10.817c2.039-1.136 3.298-3.243 3.298-5.516v-21.633c0-2.272-1.26-4.378-3.298-5.514l-19.404-10.817c-.957-.533-2.037-.825-3.142-.849z" fill="url(#a)"/>
  <path transform="matrix(1.07255 0 0 1.07255 -2.32171 -2.32163)" d="m6.523 18.715c-.342.78-.52 1.619-.523 2.467v21.632c-.001 2.273 1.259 4.38 3.297 5.516l19.406 10.816c1.003.557 2.14.85 3.297.848v-27.744z" fill="url(#b)"/>
  <path transform="matrix(1.07255 0 0 1.07255 -2.32171 -2.32163)" d="m57.482 18.711-25.482 13.539v27.744c1.157.002 2.294-.291 3.297-.848l19.404-10.816c2.04-1.136 3.3-3.244 3.299-5.517v-21.633c-.001-.848-.177-1.688-.518-2.469z" fill="url(#c)"/>
 </g>
</svg>
